public/assets/images/kluz-prize-logo.svg

<svg fill="none" height="254" viewBox="0 0 602 254" width="602" xmlns="http://www.w3.org/2000/svg"><g fill="#08112e"><path d="m268.537 202.363h-146.553l-15.634 15.62h162.187z"/><path d="m312.176 217.983h168.304v37.353l15.634-15.62v-37.353h-168.304v-57.863l-15.634 15.62z"/><path d="m580.13 53.2226v-31.2407h-182.715l-107.127 107.0331-107.128-107.0331h-182.578945v31.2407h169.799945l104.408 104.3164v66.692h-168.44v31.105h367.877v-31.105h-168.304v-66.692l104.408-104.3164z"/><path d="m290.288 120.186 16.585-16.435-103.593-103.501488h-187.065l-15.634067 15.484488h185.162067z"/><path d="m601.882.249512h-187.065l-15.498 15.484488h186.929v37.4888l15.634-15.6203z"/></g></svg>

<svg width="602" height="254" viewBox="0 0 602 254" fill="none" xmlns="http://www.w3.org/2000/svg">
  <path d="M268.537 202.363H121.984L106.35 217.983H268.537V202.363Z" fill="#08112E"/>
  <path d="M312.176 217.983H480.48V255.336L496.114 239.716V202.363H327.81V144.5L312.176 160.12V217.983Z" fill="#08112E"/>
  <path d="M580.13 53.2226V21.9819H397.415L290.288 129.015L183.16 21.9819H0.581055V53.2226H170.381L274.789 157.539V224.231H106.349V255.336H474.226V224.231H305.922V157.539L410.33 53.2226H580.13Z" fill="#08112E"/>
  <path d="M290.288 120.186L306.873 103.751L203.28 0.249512H16.215L0.580933 15.734H185.743L290.288 120.186Z" fill="#08112E"/>
  <path d="M601.882 0.249512H414.817L399.319 15.734H586.248V53.2228L601.882 37.6025V0.249512Z" fill="#08112E"/>
</svg>
